markets/ENJ.svg

<svg width="42" height="42" viewBox="0 0 42 42" fill="none" xmlns="http://www.w3.org/2000/svg">
<g clip-path="url(#clip0_7698_9604)">
<path d="M21.0148 42.0296C32.621 42.0296 42.0296 32.621 42.0296 21.0148C42.0296 9.40866 32.621 0 21.0148 0C9.40866 0 0 9.40866 0 21.0148C0 32.621 9.40866 42.0296 21.0148 42.0296Z" fill="#7866D5"/>
<path d="M29.5216 10.789C30.2329 10.8779 30.9739 10.9372 31.6853 11.0557C33.0784 11.3225 33.5526 12.0339 33.3155 13.4566C33.2562 13.9901 32.8413 14.4051 32.3077 14.494C31.9817 14.5533 31.626 14.5829 31.3 14.5533C26.6761 14.5533 22.0819 14.5829 17.4581 14.5829C16.7763 14.5829 16.065 14.6422 15.3832 14.7608C13.101 15.1164 12.2118 16.0649 12.0339 18.3768C11.945 19.4439 11.945 19.4439 13.0417 19.4439H31.4185C31.5964 19.4439 31.7742 19.4439 31.9521 19.4439C32.2485 19.4439 32.5152 19.5328 32.782 19.681C33.6119 20.2145 33.4044 21.0741 33.3748 21.8447C33.3451 22.4672 32.9598 22.8229 32.3077 22.9414C32.041 23.0007 31.7742 23.0007 31.4778 23.0007C25.1941 23.0007 18.9104 23.0007 12.6267 23.0007C11.945 23.0007 11.945 23.0007 12.0043 23.6824C12.0339 24.3049 12.0932 24.9273 12.2414 25.5497C12.5378 26.6761 13.2195 27.3874 14.3755 27.7135C15.6204 28.0691 16.9245 28.1284 18.1991 28.1581C22.6747 28.1581 27.18 28.1581 31.6853 28.1581C32.2485 28.1581 32.782 28.2174 33.1377 28.7509C33.7008 29.6401 33.4044 30.796 32.5152 31.3592C32.3967 31.4481 32.2781 31.5074 32.1299 31.537C31.1518 31.8631 30.144 31.9224 29.1066 31.952C24.8681 32.0409 20.6592 32.0409 16.4503 31.952C15.1461 31.9224 13.842 31.7742 12.5674 31.5074C9.57379 30.885 8.06215 29.3437 7.55826 26.3204C7.4397 25.6387 7.38042 24.9273 7.2915 24.2159V18.7029C7.35078 18.1694 7.41006 17.6062 7.46934 17.0727C7.85467 13.6641 9.39595 11.9746 12.7453 11.2039C13.9309 10.9372 15.1758 10.8779 16.3614 10.7593L29.5216 10.789Z" fill="white"/>
<path d="M22.7636 32.5448C20.6295 32.5448 18.525 32.5152 16.4206 32.4855C15.0868 32.4559 13.753 32.3077 12.4488 32.0113C9.21806 31.3296 7.55822 29.6104 7.0247 26.4093C6.93578 25.9054 6.8765 25.4016 6.84686 24.9273C6.81722 24.7198 6.78757 24.5124 6.75793 24.2752V24.2159V18.6436L6.81721 18.1101C6.84686 17.7248 6.90614 17.3691 6.93578 17.0134C7.35074 13.3677 9.06986 11.5004 12.6563 10.7001C13.6048 10.4926 14.5236 10.4037 15.4425 10.3148C15.7389 10.2851 16.0353 10.2555 16.3317 10.2258H16.391H29.5808H29.6104C29.8179 10.2555 30.055 10.2851 30.2625 10.2851C30.7664 10.3444 31.2703 10.374 31.8038 10.4926C33.4933 10.8186 34.1454 11.7671 33.849 13.4862C33.76 14.2272 33.1672 14.8497 32.367 14.9682C32.0113 15.0275 31.6556 15.0572 31.2703 15.0572C26.6761 15.0868 22.0522 15.1164 17.458 15.1164C16.8059 15.1164 16.1242 15.1757 15.4721 15.2943C13.427 15.6203 12.7452 16.3613 12.5674 18.4361C12.5674 18.614 12.5378 18.7918 12.5378 18.94C12.6563 18.94 12.8638 18.94 13.0416 18.94H31.952C32.3373 18.94 32.7226 19.0586 33.0487 19.2364C34.0565 19.8885 33.9675 20.8666 33.9083 21.578C33.9083 21.6669 33.8786 21.7855 33.8786 21.8744C33.8193 22.7043 33.3155 23.2675 32.3966 23.4453C32.0706 23.5046 31.7742 23.5046 31.4778 23.5046H12.6563C12.6267 23.5046 12.5674 23.5046 12.5378 23.5046C12.5378 23.5342 12.5378 23.5639 12.5378 23.5935V23.6231C12.5674 24.2456 12.6267 24.8384 12.7749 25.4312C13.012 26.35 13.5752 26.9132 14.5236 27.18C15.7982 27.5356 17.1023 27.5949 18.2286 27.5949C21.7262 27.6246 25.283 27.6246 28.7509 27.6246H31.7149C32.1595 27.6246 33.0783 27.6246 33.6119 28.4841C33.9675 29.0473 34.0565 29.6994 33.9083 30.3218C33.7601 30.9443 33.3747 31.4778 32.8116 31.8335C32.6634 31.9224 32.4855 32.0113 32.3077 32.0706C31.211 32.4263 30.0847 32.4855 29.1362 32.5152C27.0318 32.5152 24.8977 32.5448 22.7636 32.5448ZM7.82498 24.1863C7.85462 24.3938 7.88426 24.6013 7.88426 24.8088C7.94354 25.283 8.00282 25.7572 8.0621 26.2315C8.53634 29.0176 9.87014 30.3811 12.6563 30.9739C13.9012 31.2406 15.1757 31.3889 16.4502 31.4185C20.6295 31.5074 24.8977 31.5074 29.1066 31.4185C29.9661 31.3889 31.0035 31.3296 31.952 31.0332C32.0409 31.0035 32.1298 30.9443 32.2188 30.9146C32.5152 30.7071 32.7523 30.4107 32.8412 30.055C32.9301 29.6994 32.8708 29.3437 32.6634 29.0176C32.4855 28.7509 32.2484 28.662 31.6852 28.662H28.7212C25.283 28.662 21.6965 28.662 18.199 28.6323C17.0134 28.6323 15.6203 28.573 14.2272 28.1581C12.8934 27.8024 12.0635 26.9428 11.7375 25.609C11.5893 24.957 11.5003 24.2752 11.5003 23.6231V23.5935C11.4707 23.1785 11.4411 22.8821 11.6782 22.6154C11.9153 22.3486 12.2414 22.3486 12.6563 22.3486H31.5074C31.7445 22.3486 32.0113 22.3486 32.2484 22.2893C32.7226 22.2004 32.8412 21.9929 32.8709 21.6965C32.8709 21.578 32.9005 21.4891 32.9005 21.3705C32.9598 20.6295 32.9598 20.2738 32.5448 20.0071C32.3966 19.9181 32.1891 19.8589 32.0113 19.8589H13.0416C12.3896 19.8589 12.0042 19.8589 11.7078 19.5625C11.4114 19.2661 11.4707 18.8511 11.5003 18.2287C11.7078 15.6796 12.7749 14.5236 15.2943 14.1383C16.0056 14.0198 16.717 13.9605 17.458 13.9308C22.0819 13.9308 26.6761 13.9012 31.2999 13.9012C31.626 13.9012 31.9224 13.9012 32.2188 13.8419C32.5152 13.8123 32.7523 13.5752 32.7819 13.2788C32.9894 12.0932 32.693 11.7078 31.5667 11.4707C31.0924 11.3818 30.6182 11.3225 30.144 11.2929C29.9365 11.2632 29.6994 11.2336 29.4919 11.2336H16.391C16.0946 11.2632 15.7982 11.2929 15.5018 11.3225C14.5829 11.4114 13.7234 11.4707 12.8342 11.6782C9.72194 12.4488 8.3585 13.9605 8.00282 17.1616C7.97318 17.5173 7.9139 17.873 7.88426 18.2583L7.82498 18.7622V24.1863Z" fill="white"/>
</g>
<defs>
<clipPath id="clip0_7698_9604">
<rect width="42" height="42" fill="white"/>
</clipPath>
</defs>
</svg>

<svg width="42" height="42" viewBox="0 0 42 42" fill="none" xmlns="http://www.w3.org/2000/svg"><g clip-path="url(#clip0_7698_9604)"><path d="M21.015 42.03c11.606 0 21.015-9.409 21.015-21.015S32.62 0 21.015 0 0 9.409 0 21.015 9.409 42.03 21.015 42.03z" fill="#7866D5"/><path d="M29.522 10.789c.71.089 1.452.148 2.163.267 1.393.267 1.868.978 1.63 2.4-.059.534-.474.95-1.007 1.038-.326.06-.682.089-1.008.06-4.624 0-9.218.029-13.842.029-.682 0-1.393.06-2.075.178-2.282.355-3.171 1.304-3.35 3.616-.088 1.067-.088 1.067 1.009 1.067h18.91c.296 0 .563.089.83.237.83.534.622 1.393.593 2.164-.03.622-.415.978-1.067 1.096-.267.06-.534.06-.83.06H12.627c-.682 0-.682 0-.623.681.03.623.09 1.245.237 1.868.297 1.126.979 1.837 2.135 2.163 1.244.356 2.548.415 3.823.445h13.486c.564 0 1.097.06 1.453.593.563.89.266 2.045-.623 2.608a.918.918 0 01-.385.178c-.978.326-1.986.385-3.023.415-4.239.089-8.448.089-12.657 0a21.346 21.346 0 01-3.883-.445c-2.993-.622-4.505-2.163-5.009-5.187-.118-.681-.178-1.393-.266-2.104v-5.513c.059-.534.118-1.097.177-1.63.386-3.409 1.927-5.098 5.276-5.87 1.186-.266 2.43-.325 3.616-.444l13.16.03z" fill="#fff"/><path d="M22.764 32.545c-2.134 0-4.239-.03-6.343-.06a19.92 19.92 0 01-3.972-.474c-3.23-.681-4.89-2.4-5.424-5.602a13.428 13.428 0 01-.178-1.482c-.03-.207-.06-.415-.09-.652v-5.631l.06-.534c.03-.385.09-.74.119-1.097.415-3.645 2.134-5.513 5.72-6.313.949-.207 1.868-.296 2.787-.385l.889-.09H29.61c.207.03.444.06.651.06.504.06 1.008.089 1.542.208 1.69.326 2.341 1.274 2.045 2.993-.089.741-.682 1.364-1.482 1.482-.356.06-.711.09-1.097.09-4.594.029-9.218.058-13.812.058-.652 0-1.334.06-1.986.178-2.045.326-2.727 1.067-2.905 3.142 0 .178-.03.356-.03.504h19.415c.385 0 .77.119 1.097.296 1.008.652.919 1.63.86 2.342 0 .089-.03.207-.03.296-.06.83-.563 1.393-1.482 1.571-.326.06-.623.06-.92.06h-18.94v.118c.03.623.09 1.215.238 1.808.237.919.8 1.482 1.749 1.749 1.274.356 2.578.415 3.705.415 3.497.03 7.054.03 10.522.03h2.964c.445 0 1.363 0 1.897.86.355.562.444 1.214.296 1.837a2.453 2.453 0 01-1.6 1.749c-1.097.355-2.223.415-3.172.444-2.104 0-4.238.03-6.372.03zM7.825 24.186c.03.208.06.415.06.623l.177 1.422c.474 2.787 1.808 4.15 4.594 4.743 1.245.267 2.52.415 3.794.445 4.18.088 8.448.088 12.657 0 .86-.03 1.896-.09 2.845-.386.089-.03.178-.089.267-.118.296-.208.533-.504.622-.86a1.29 1.29 0 00-.178-1.037c-.177-.267-.415-.356-.978-.356h-2.964c-3.438 0-7.024 0-10.522-.03-1.186 0-2.579-.059-3.972-.474-1.334-.356-2.164-1.215-2.49-2.549a9.087 9.087 0 01-.237-1.986v-.03c-.03-.415-.059-.71.178-.978.237-.266.563-.266.978-.266h18.851c.237 0 .504 0 .741-.06.475-.089.593-.296.623-.593 0-.118.03-.207.03-.326.059-.74.059-1.096-.356-1.363a1.108 1.108 0 00-.534-.148h-18.97c-.651 0-1.037 0-1.333-.297-.297-.296-.237-.71-.208-1.333.208-2.55 1.275-3.705 3.794-4.09a17.279 17.279 0 012.164-.208c4.624 0 9.218-.03 13.842-.03.326 0 .622 0 .919-.06a.631.631 0 00.563-.562c.207-1.186-.089-1.571-1.215-1.808a11.658 11.658 0 00-1.423-.178 4.837 4.837 0 00-.652-.06H16.39l-.89.09c-.918.088-1.778.148-2.667.355-3.112.77-4.476 2.282-4.831 5.484-.03.355-.09.711-.119 1.096l-.059.504v5.424z" fill="#fff"/></g><defs><clipPath id="clip0_7698_9604"><path fill="#fff" d="M0 0h42v42H0z"/></clipPath></defs></svg>
